assets/plus_orange.svg

<svg width="20" height="21" viewBox="0 0 20 21" fill="none" xmlns="http://www.w3.org/2000/svg">
<path d="M9.98299 15.9153C10.2651 15.9153 10.5018 15.8197 10.693 15.6285C10.8836 15.4379 10.9788 15.2016 10.9788 14.9194V11.9319H13.9912C14.2734 11.9319 14.5057 11.8363 14.6883 11.6451C14.8709 11.4546 14.9622 11.2183 14.9622 10.9361C14.9622 10.654 14.8666 10.4173 14.6754 10.2261C14.4848 10.0355 14.2485 9.94028 13.9663 9.94028H10.9788V6.92789C10.9788 6.64573 10.8836 6.41337 10.693 6.2308C10.5018 6.04823 10.2651 5.95695 9.98299 5.95695C9.70084 5.95695 9.46449 6.05222 9.27396 6.24275C9.08276 6.43395 8.98716 6.67063 8.98716 6.95278V9.94028H5.97476C5.69261 9.94028 5.46025 10.0355 5.27768 10.2261C5.09511 10.4173 5.00382 10.654 5.00382 10.9361C5.00382 11.2183 5.09909 11.4546 5.28963 11.6451C5.48083 11.8363 5.7175 11.9319 5.99966 11.9319H8.98716V14.9443C8.98716 15.2265 9.08276 15.4589 9.27396 15.6414C9.46449 15.824 9.70084 15.9153 9.98299 15.9153ZM9.98299 20.8944C8.60542 20.8944 7.31084 20.6329 6.09924 20.1097C4.88764 19.5873 3.83372 18.8779 2.93747 17.9816C2.04122 17.0854 1.33186 16.0315 0.809375 14.8199C0.28623 13.6083 0.0246582 12.3137 0.0246582 10.9361C0.0246582 9.55855 0.28623 8.26396 0.809375 7.05237C1.33186 5.84077 2.04122 4.78685 2.93747 3.8906C3.83372 2.99435 4.88764 2.28465 6.09924 1.7615C7.31084 1.23902 8.60542 0.977783 9.98299 0.977783C11.3606 0.977783 12.6551 1.23902 13.8667 1.7615C15.0783 2.28465 16.1323 2.99435 17.0285 3.8906C17.9248 4.78685 18.6341 5.84077 19.1566 7.05237C19.6798 8.26396 19.9413 9.55855 19.9413 10.9361C19.9413 12.3137 19.6798 13.6083 19.1566 14.8199C18.6341 16.0315 17.9248 17.0854 17.0285 17.9816C16.1323 18.8779 15.0783 19.5873 13.8667 20.1097C12.6551 20.6329 11.3606 20.8944 9.98299 20.8944Z" fill="#F04E01"/>
</svg>

<svg width="20" height="21" fill="none" xmlns="http://www.w3.org/2000/svg"><path d="M9.983 15.915a.964.964 0 0 0 .71-.286.963.963 0 0 0 .286-.71v-2.987h3.012a.922.922 0 0 0 .697-.287.985.985 0 0 0 .274-.709.964.964 0 0 0-.287-.71.963.963 0 0 0-.709-.286H10.98V6.928a.923.923 0 0 0-.286-.697.988.988 0 0 0-.71-.274.963.963 0 0 0-.709.286.964.964 0 0 0-.287.71V9.94H5.975a.923.923 0 0 0-.697.286.988.988 0 0 0-.274.71c0 .282.095.519.286.71a.964.964 0 0 0 .71.286h2.987v3.012c0 .282.096.515.287.697.19.183.427.274.709.274Zm0 4.98a9.69 9.69 0 0 1-3.884-.785 10.047 10.047 0 0 1-3.162-2.128A10.049 10.049 0 0 1 .81 14.82a9.692 9.692 0 0 1-.784-3.884c0-1.377.261-2.672.784-3.884a10.05 10.05 0 0 1 2.128-3.161A10.063 10.063 0 0 1 6.1 1.76 9.702 9.702 0 0 1 9.983.978c1.378 0 2.672.261 3.884.784a10.063 10.063 0 0 1 3.162 2.129c.896.896 1.605 1.95 2.128 3.161a9.69 9.69 0 0 1 .784 3.884 9.69 9.69 0 0 1-.784 3.884 10.048 10.048 0 0 1-2.128 3.162 10.047 10.047 0 0 1-3.162 2.128 9.69 9.69 0 0 1-3.884.784Z" fill="#F04E01"/></svg>
